static/logos/userbob.svg

<svg enable-background="new 0 0 583.5 170.5" viewBox="0 0 583.5 170.5" xmlns="http://www.w3.org/2000/svg"><path d="m11 28.5h21v71.1c0 14.2 11.5 25.7 25.7 25.7 14.2 0 25.7-11.5 25.7-25.7v-71.1h21v69.9c0 25.8-20.9 46.7-46.7 46.7-25.8 0-46.7-20.9-46.7-46.7z"/><path d="m159 69.2h18.6s-.4-28.6-31.8-28.6c-17.9 0-32.8 10.7-32.8 25.4s9.3 21.9 24.9 23.9 22.5 4.7 22.5 9.6-8 6.8-17.5 6.8-12.6-4.9-12.6-10.8h-18.8s-2.2 28.8 33.1 28.8 40.1-28.4 28.7-40.9-41.6-5.8-41.6-17.1c0-8.8 28.2-11.8 27.3 2.9z"/><path d="m222.9 40.6c-24.6 0-43 22.6-40.9 44.7s19.3 38.9 43 38.9c11 0 25.6-6.6 33.9-19.4l-15.5-9.8c-14.6 19.1-34.1 11-41.2-3h62.4c4.3-30.7-17.1-51.4-41.7-51.4zm-20.7 32.7s5.7-14.2 21.3-14.2 22 14.2 22 14.2z"/><path d="m311.4 40.6v19.7c-20.3-3.7-21.8 10.5-21.8 20.5v41.2h-18.5v-79h18.5v4.2c8.7-7 21.8-6.6 21.8-6.6z"/><g fill="#f90"><path d="m385.8 69.6c2.6-1.9 10.1-7.1 10.1-21.6s-14.3-28.7-29.9-28.7-47.9 0-47.9 0v102.7h48.5c17.1 0 31.7-14 31.7-30.2s-12.5-22.2-12.5-22.2zm-49.2-31.8h29.1c6.4 0 11.6 5.2 11.6 11.6 0 6.4-5.2 11.6-11.6 11.6h-29.1zm39.6 62c-2.1 2.1-5.1 3.4-8.3 3.4h-31.3v-23.4h31.3c6.5 0 11.8 5.3 11.8 11.8-.1 3.2-1.4 6.1-3.5 8.2z"/><path d="m533.5 40.9c-9.7 0-18.7 3.7-25.6 9.8v-31.8h-18.3v102.7h18.3v-6.8c6.9 6.2 15.8 9.8 25.6 9.8 22 0 39.8-18.8 39.8-41.9s-17.8-41.8-39.8-41.8zm-2.2 65.1c-12.7 0-23-10.4-23-23.3s10.3-23.3 23-23.3 23 10.4 23 23.3-10.3 23.3-23 23.3z"/><path d="m112.5 132.8h457.6v8.7h-457.6z"/><path d="m443.1 47.4c19.5 0 35.3 15.8 35.3 35.3s-15.8 35.3-35.3 35.3-35.3-15.8-35.3-35.3 15.8-35.3 35.3-35.3zm0-7c-23.3 0-42.3 19-42.3 42.3s19 42.3 42.3 42.3 42.3-19 42.3-42.3-19-42.3-42.3-42.3z"/></g><path d="m443.1 47.4c19.5 0 35.3 15.8 35.3 35.3s-15.8 35.3-35.3 35.3-35.3-15.8-35.3-35.3 15.8-35.3 35.3-35.3m0-7c-23.3 0-42.3 19-42.3 42.3s19 42.3 42.3 42.3 42.3-19 42.3-42.3-19-42.3-42.3-42.3z"/><path d="m439.9 53.8v14.2c-6.5 1.4-11.5 6.9-11.9 13.7h-14c.5-14.6 11.7-26.4 25.9-27.9z" fill="#f90"/><path d="m472.2 81.7h-14c-.5-7-5.8-12.7-12.6-13.8v-14.2c14.6 1.2 26.1 13.2 26.6 28z" fill="#f90"/><path d="m439.9 97.5v14.2c-13.8-1.5-24.7-12.6-25.9-26.4h14.1c1.1 6.1 5.8 11 11.8 12.2z" fill="#f90"/><path d="m472.1 85.3c-1.2 14.1-12.5 25.3-26.5 26.5v-14.1c6.3-1 11.3-6 12.4-12.3h14.1z" fill="#f90"/></svg>

<?xml version="1.0" encoding="utf-8"?>
<!-- Generator: Adobe Illustrator 19.0.0, SVG Export Plug-In . SVG Version: 6.00 Build 0)  -->
<svg version="1.1" id="Layer_2" xmlns="http://www.w3.org/2000/svg" xmlns:xlink="http://www.w3.org/1999/xlink" x="0px" y="0px"
	 viewBox="0 0 583.5 170.5" style="enable-background:new 0 0 583.5 170.5;" xml:space="preserve">
<style type="text/css">
	.st0{fill:#FF9900;}
</style>
<path d="M11,28.5h21v71.1c0,14.2,11.5,25.7,25.7,25.7h0c14.2,0,25.7-11.5,25.7-25.7V28.5h21v69.9c0,25.8-20.9,46.7-46.7,46.7h0
	c-25.8,0-46.7-20.9-46.7-46.7V28.5z"/>
<path d="M159,69.2h18.6c0,0-0.4-28.6-31.8-28.6c-17.9,0-32.8,10.7-32.8,25.4s9.3,21.9,24.9,23.9s22.5,4.7,22.5,9.6s-8,6.8-17.5,6.8
	s-12.6-4.9-12.6-10.8h-18.8c0,0-2.2,28.8,33.1,28.8s40.1-28.4,28.7-40.9s-41.6-5.8-41.6-17.1C131.7,57.5,159.9,54.5,159,69.2z"/>
<path d="M222.9,40.6c-24.6,0-43,22.6-40.9,44.7s19.3,38.9,43,38.9c11,0,25.6-6.6,33.9-19.4L243.4,95c-14.6,19.1-34.1,11-41.2-3h62.4
	C268.9,61.3,247.5,40.6,222.9,40.6z M202.2,73.3c0,0,5.7-14.2,21.3-14.2s22,14.2,22,14.2H202.2z"/>
<path d="M311.4,40.6v19.7c-20.3-3.7-21.8,10.5-21.8,20.5v41.2h-18.5v-79h18.5v4.2C298.3,40.2,311.4,40.6,311.4,40.6z"/>
<path class="st0" d="M385.8,69.6c2.6-1.9,10.1-7.1,10.1-21.6S381.6,19.3,366,19.3s-47.9,0-47.9,0v102.7c0,0,31.4,0,48.5,0
	c17.1,0,31.7-14,31.7-30.2S385.8,69.6,385.8,69.6z M336.6,37.8h29.1c6.4,0,11.6,5.2,11.6,11.6v0c0,6.4-5.2,11.6-11.6,11.6h-29.1
	V37.8z M376.2,99.8c-2.1,2.1-5.1,3.4-8.3,3.4h-31.3V79.8h31.3c6.5,0,11.8,5.3,11.8,11.8C379.6,94.8,378.3,97.7,376.2,99.8z"/>
<path class="st0" d="M533.5,40.9c-9.7,0-18.7,3.7-25.6,9.8V18.9h-18.3v102.7h18.3v-6.8c6.9,6.2,15.8,9.8,25.6,9.8
	c22,0,39.8-18.8,39.8-41.9S555.5,40.9,533.5,40.9z M531.3,106c-12.7,0-23-10.4-23-23.3s10.3-23.3,23-23.3c12.7,0,23,10.4,23,23.3
	S544,106,531.3,106z"/>
<rect x="112.5" y="132.8" class="st0" width="457.6" height="8.7"/>
<path class="st0" d="M443.1,47.4c19.5,0,35.3,15.8,35.3,35.3s-15.8,35.3-35.3,35.3c-19.5,0-35.3-15.8-35.3-35.3
	S423.6,47.4,443.1,47.4L443.1,47.4z M443.1,40.4c-23.3,0-42.3,19-42.3,42.3s19,42.3,42.3,42.3c23.3,0,42.3-19,42.3-42.3
	S466.4,40.4,443.1,40.4L443.1,40.4z"/>
<path d="M443.1,47.4c19.5,0,35.3,15.8,35.3,35.3s-15.8,35.3-35.3,35.3c-19.5,0-35.3-15.8-35.3-35.3S423.6,47.4,443.1,47.4
	 M443.1,40.4c-23.3,0-42.3,19-42.3,42.3s19,42.3,42.3,42.3c23.3,0,42.3-19,42.3-42.3S466.4,40.4,443.1,40.4L443.1,40.4z"/>
<g>
	<path class="st0" d="M439.9,53.8V68c-6.5,1.4-11.5,6.9-11.9,13.7h-14C414.5,67.1,425.7,55.3,439.9,53.8z"/>
</g>
<g>
	<path class="st0" d="M472.2,81.7h-14c-0.5-7-5.8-12.7-12.6-13.8V53.7C460.2,54.9,471.7,66.9,472.2,81.7z"/>
</g>
<g>
	<path class="st0" d="M439.9,97.5v14.2c-13.8-1.5-24.7-12.6-25.9-26.4h14.1C429.2,91.4,433.9,96.3,439.9,97.5z"/>
</g>
<g>
	<path class="st0" d="M472.1,85.3c-1.2,14.1-12.5,25.3-26.5,26.5V97.7c6.3-1,11.3-6,12.4-12.3H472.1z"/>
</g>
</svg>
